svgs/light/pen-line.svg

<svg xmlns="http://www.w3.org/2000/svg" viewBox="0 0 576 512"><!--! Font Awesome Pro 6.1.1 by @fontawesome - https://fontawesome.com License - https://fontawesome.com/license (Commercial License) Copyright 2022 Fonticons, Inc. --><path d="M373.2 16.97C395.1-4.897 430.5-4.897 452.4 16.97L495 59.6C516.9 81.47 516.9 116.9 495 138.8L182.3 451.6C170.9 462.9 156.9 471.2 141.5 475.8L20.52 511.4C14.9 513 8.827 511.5 4.687 507.3C.5466 503.2-1.002 497.1 .6506 491.5L36.23 370.5C40.76 355.1 49.09 341.1 60.44 329.7L373.2 16.97zM429.8 39.6C420.4 30.23 405.2 30.23 395.8 39.6L341 94.4L417.6 170.1L472.4 116.2C481.8 106.8 481.8 91.6 472.4 82.23L429.8 39.6zM66.93 379.6L39.63 472.4L132.4 445.1C142.7 442.1 152.1 436.5 159.6 428.9L394.1 193.6L318.4 117L83.07 352.4C75.5 359.9 69.95 369.3 66.93 379.6V379.6zM560 480C568.8 480 576 487.2 576 496C576 504.8 568.8 512 560 512H240C231.2 512 224 504.8 224 496C224 487.2 231.2 480 240 480H560z"/></svg>

<svg xmlns="http://www.w3.org/2000/svg" viewBox="0 0 576 512"><!--! Font Awesome Pro 6.5.1 by @fontawesome - https://fontawesome.com License - https://fontawesome.com/license (Commercial License) Copyright 2023 Fonticons, Inc. --><path d="M429.8 39.6c-9.4-9.4-24.6-9.4-33.9 0L341 94.4 417.6 171l54.8-54.8c9.4-9.4 9.4-24.6 0-33.9L429.8 39.6zM83.1 352.4c-7.6 7.6-13.1 16.9-16.1 27.2L39.6 472.4l92.8-27.3c10.3-3 19.6-8.6 27.2-16.1L395 193.6 318.4 117 83.1 352.4zM373.2 17c21.9-21.9 57.3-21.9 79.2 0L495 59.6c21.9 21.9 21.9 57.3 0 79.2L182.3 451.6c-11.4 11.4-25.4 19.7-40.8 24.2l-121 35.6c-5.6 1.7-11.7 .1-15.8-4s-5.7-10.2-4-15.8l35.6-121c4.5-15.4 12.9-29.4 24.2-40.8L373.2 17zM240 480H560c8.8 0 16 7.2 16 16s-7.2 16-16 16H240c-8.8 0-16-7.2-16-16s7.2-16 16-16z"/></svg>
